svgs/youtube_kids.svg

<svg viewBox="0 0 192 192" preserveAspectRatio="xMidYMid" class="style-scope yt-icon" style="display:block" width="192" height="192" xmlns:xlink="http://www.w3.org/1999/xlink" xmlns="http://www.w3.org/2000/svg"><defs><linearGradient id="a"><stop style="stop-color:#000;stop-opacity:1" offset="0"/><stop style="stop-color:#000;stop-opacity:0" offset="1"/></linearGradient><linearGradient xlink:href="#a" id="b" x1="2.004" y1="12" x2="21.998" y2="12" gradientUnits="userSpaceOnUse" gradientTransform="matrix(1.02105 0 0 1.00561 -.247 -.067)"/></defs><g class="style-scope yt-icon" transform="matrix(7.83738 0 0 6.96095 1.899 12.469)" style="fill:url(#b);fill-opacity:1;stroke-width:1.01331"><path fill="red" d="M21.39 13.19v-.22c-.01-.86-.5-5-.78-5.74-.32-.85-.76-1.5-1.31-1.91-.9-.67-1.66-.82-2.6-.84h-.02c-.4 0-3.01.32-5.2.62-2.2.3-4.95.7-5.6.94-.9.33-1.62.77-2.19 1.33-1.05 1.04-1.18 2.11-1.04 3.51.1 1.09.69 5.37 1.02 6.35.45 1.32 1.33 2.12 2.47 2.24.28.03.55.05.82.05 1 0 1.8-.21 2.72-.46 1.45-.39 3.25-.87 6.97-.87h.11c.91 0 3.14-.2 4.16-2.07.52-1 .49-2.21.47-2.93z" class="style-scope yt-icon" style="fill:none;fill-opacity:1;stroke:#000;stroke-width:1.62466;stroke-dasharray:none;stroke-opacity:1"/><path fill="#000" d="M11.59 14.76c-.48.36-.8.45-1.01.45a.54.54 0 0 1-.3-.08c-.34-.18-.42-.61-.5-1.2l-.01-.1c-.04-.31-.26-2.1-.38-3.16l-.09-.73c-.04-.28-.1-.75.24-1 .32-.23.75-.09.96-.03.53.17 3.6 1.23 4.59 1.73.21.09.67.28.68.83.01.5-.38.74-.53.82z" class="style-scope yt-icon" style="fill:none;fill-opacity:1;stroke:#000;stroke-width:1.62466;stroke-dasharray:none;stroke-opacity:1"/></g></svg>

<?xml version="1.0" encoding="UTF-8" standalone="no"?>
<svg viewBox="0 0 192 192" preserveAspectRatio="xMidYMid" focusable="false" class="style-scope yt-icon"
    style="display:block" version="1.1" id="svg8762" sodipodi:docname="youtube_kids.svg" width="192"
    height="192" inkscape:version="1.2.1 (9c6d41e410, 2022-07-14)" xmlns:inkscape="http://www.inkscape.org/namespaces/inkscape"
    xmlns:sodipodi="http://sodipodi.sourceforge.net/DTD/sodipodi-0.dtd" xmlns:xlink="http://www.w3.org/1999/xlink"
    xmlns="http://www.w3.org/2000/svg">
  <defs
     id="defs8766">
    <linearGradient
       inkscape:collect="always"
       id="linearGradient9339">
      <stop
         style="stop-color:#000000;stop-opacity:1;"
         offset="0"
         id="stop9335" />
      <stop
         style="stop-color:#000000;stop-opacity:0;"
         offset="1"
         id="stop9337" />
    </linearGradient>
    <linearGradient
       inkscape:collect="always"
       xlink:href="#linearGradient9339"
       id="linearGradient9341"
       x1="2.0041416"
       y1="12"
       x2="21.998322"
       y2="12"
       gradientUnits="userSpaceOnUse"
       gradientTransform="matrix(1.0210469,0,0,1.0056106,-0.24710312,-0.06732619)" />
  </defs>
  <sodipodi:namedview
     id="namedview8764"
     pagecolor="#ffffff"
     bordercolor="#000000"
     borderopacity="0.25"
     inkscape:showpageshadow="2"
     inkscape:pageopacity="0.0"
     inkscape:pagecheckerboard="0"
     inkscape:deskcolor="#d1d1d1"
     showgrid="true"
     inkscape:zoom="3.0530808"
     inkscape:cx="46.837935"
     inkscape:cy="104.48462"
     inkscape:window-width="1920"
     inkscape:window-height="1009"
     inkscape:window-x="-8"
     inkscape:window-y="-8"
     inkscape:window-maximized="1"
     inkscape:current-layer="svg8762"
     showguides="false">
    <inkscape:grid
       type="xygrid"
       id="grid8768"
       originx="0"
       originy="0" />
  </sodipodi:namedview>
  <g
     class="style-scope yt-icon"
     id="g8760"
     transform="matrix(7.8373768,0,0,6.9609456,1.8988402,12.468653)"
     style="fill:url(#linearGradient9341);fill-opacity:1;stroke-width:1.01331">
    <path
       fill="#ff0000"
       d="m 21.39,13.19 c 0,-0.08 0,-0.15 0,-0.22 -0.01,-0.86 -0.5,-5 -0.78,-5.74 C 20.29,6.38 19.85,5.73 19.3,5.32 18.4,4.65 17.64,4.5 16.7,4.48 h -0.02 c -0.4,0 -3.01,0.32 -5.2,0.62 C 9.28,5.4 6.53,5.8 5.88,6.04 4.98,6.37 4.26,6.81 3.69,7.37 2.64,8.41 2.51,9.48 2.65,10.88 c 0.1,1.09 0.69,5.37 1.02,6.35 0.45,1.32 1.33,2.12 2.47,2.24 0.28,0.03 0.55,0.05 0.82,0.05 1,0 1.8,-0.21 2.72,-0.46 1.45,-0.39 3.25,-0.87 6.97,-0.87 h 0.09 0.02 c 0.91,0 3.14,-0.2 4.16,-2.07 0.52,-1 0.49,-2.21 0.47,-2.93 z"
       class="style-scope yt-icon"
       id="path8752"
       style="fill:none;fill-opacity:1;stroke:#000000;stroke-width:1.62466;stroke-dasharray:none;stroke-opacity:1" />
    <path
       fill="#000000"
       d="m 11.59,14.76 c -0.48,0.36 -0.8,0.45 -1.01,0.45 -0.16,0 -0.25,-0.05 -0.3,-0.08 -0.34,-0.18 -0.42,-0.61 -0.5,-1.2 L 9.77,13.83 C 9.73,13.52 9.51,11.73 9.39,10.67 L 9.3,9.94 C 9.26,9.66 9.2,9.19 9.54,8.94 9.86,8.71 10.29,8.85 10.5,8.91 c 0.53,0.17 3.6,1.23 4.59,1.73 0.21,0.09 0.67,0.28 0.68,0.83 0.01,0.5 -0.38,0.74 -0.53,0.82 z"
       class="style-scope yt-icon"
       id="path8756"
       style="fill:none;fill-opacity:1;stroke:#000000;stroke-width:1.62466;stroke-dasharray:none;stroke-opacity:1" />
  </g>
</svg>
